X: 23349
T: Leitrim Clog Dance
R: hornpipe
M: 4/4
K: Dmajor
|:A2|D2 FA dA FA|G2 .B2 G2 B2|D2 FA DA FA|E2 .c2 E2 .c2|
D2 FA dA FA|G2 .B2 G2 B2|Ad cB AG FE|1 (3DED CE D2:|2 (3DED CE D2>c||
dA FA DA FA|G2 .B2 G2 Bc|dA FA DA FA|E2 .c2 E2 .c2|
dA FA DA FA|G2 .B2 G2 B2|Ad cB AG FE|(3DED CE D2(3ABc|
(3ddd FA (3ddd AF|G2 .BGDG (3BAG|dA FA DA FA|E2 .c2 E2 .c2|
dA FA dA FA|G2 .B2 G2 B2|Ad cB AG FE|(3DED CE D2|
|:A2|D2 FA dA FA|G2 BG DG BG|D2 FA DA FA|E2 .cG EG .cG|
D2 FA dA FA|G2 .B2 G2 D2|Ad cB AG FE|1 (3DED CE D2:|2 (3DED CE D2||
dA FA DA FA|G2 .B2 G2 Bc|dA FA DA FA|(3EEE .c2 (3EEE .c2|
dA FA DA FA|G2 -G2 -G2 BG|Ad cB AG FE|(3DED FE D2D2|
(3ddd FA (3ddd AF|G2 .BGDG (3BAG|dA FA DA FA|E2 .c2 E2 .c2|
dA FA dA FA|G2 .B2 G2 B2|Ad cB A2zc|(3ded ce d4||

